Newaita-dark/actions/32/go-bottom.svg

<svg height="32" viewBox="0 0 32 32" width="32" xmlns="http://www.w3.org/2000/svg"><g fill="#e0e0e0"><path d="m17.199219 6.863281v11.910157c0 .730468-.59375 1.320312-1.324219 1.320312s-1.320312-.589844-1.320312-1.320312v-11.910157c0-.730469.589843-1.320312 1.320312-1.320312s1.324219.589843 1.324219 1.320312zm0 0"/><path d="m7.457031 8.480469 9.355469 9.355469c.515625.519531.515625 1.355468 0 1.871093-.519531.519531-1.355469.519531-1.871094 0l-9.355468-9.355469c-.519532-.515624-.519532-1.351562 0-1.871093.515624-.515625 1.351562-.515625 1.871093 0zm0 0"/><path d="m26.167969 10.351562-9.355469 9.355469c-.515625.519531-1.355469.519531-1.871094 0-.515625-.515625-.515625-1.351562 0-1.871093l9.355469-9.355469c.515625-.515625 1.355469-.515625 1.871094 0 .515625.519531.515625 1.355469 0 1.871093zm0 0"/><path d="m18.523438 24.066406c0 1.460938-1.1875 2.644532-2.648438 2.644532s-2.644531-1.183594-2.644531-2.644532c0-1.460937 1.183593-2.648437 2.644531-2.648437s2.648438 1.1875 2.648438 2.648437zm0 0"/></g></svg>

<svg xmlns="http://www.w3.org/2000/svg" xmlns:xlink="http://www.w3.org/1999/xlink" width="32px" height="32px" viewBox="0 0 32 32" version="1.1">
<g id="surface1">
     <defs>
  <style id="current-color-scheme" type="text/css">
   .ColorScheme-Text { color:#eeeeee; } .ColorScheme-Highlight { color:#424242; }
  </style>
 </defs>
<path style="fill:currentColor" class="ColorScheme-Text" d="M 17.199219 6.863281 L 17.199219 18.773438 C 17.199219 19.503906 16.605469 20.09375 15.875 20.09375 C 15.144531 20.09375 14.554688 19.503906 14.554688 18.773438 L 14.554688 6.863281 C 14.554688 6.132812 15.144531 5.542969 15.875 5.542969 C 16.605469 5.542969 17.199219 6.132812 17.199219 6.863281 Z M 17.199219 6.863281 "/>
     <defs>
  <style id="current-color-scheme" type="text/css">
   .ColorScheme-Text { color:#eeeeee; } .ColorScheme-Highlight { color:#424242; }
  </style>
 </defs>
<path style="fill:currentColor" class="ColorScheme-Text" d="M 7.457031 8.480469 L 16.8125 17.835938 C 17.328125 18.355469 17.328125 19.191406 16.8125 19.707031 C 16.292969 20.226562 15.457031 20.226562 14.941406 19.707031 L 5.585938 10.351562 C 5.066406 9.835938 5.066406 9 5.585938 8.480469 C 6.101562 7.964844 6.9375 7.964844 7.457031 8.480469 Z M 7.457031 8.480469 "/>
     <defs>
  <style id="current-color-scheme" type="text/css">
   .ColorScheme-Text { color:#eeeeee; } .ColorScheme-Highlight { color:#424242; }
  </style>
 </defs>
<path style="fill:currentColor" class="ColorScheme-Text" d="M 26.167969 10.351562 L 16.8125 19.707031 C 16.296875 20.226562 15.457031 20.226562 14.941406 19.707031 C 14.425781 19.191406 14.425781 18.355469 14.941406 17.835938 L 24.296875 8.480469 C 24.8125 7.964844 25.652344 7.964844 26.167969 8.480469 C 26.683594 9 26.683594 9.835938 26.167969 10.351562 Z M 26.167969 10.351562 "/>
     <defs>
  <style id="current-color-scheme" type="text/css">
   .ColorScheme-Text { color:#eeeeee; } .ColorScheme-Highlight { color:#424242; }
  </style>
 </defs>
<path style="fill:currentColor" class="ColorScheme-Text" d="M 18.523438 24.066406 C 18.523438 25.527344 17.335938 26.710938 15.875 26.710938 C 14.414062 26.710938 13.230469 25.527344 13.230469 24.066406 C 13.230469 22.605469 14.414062 21.417969 15.875 21.417969 C 17.335938 21.417969 18.523438 22.605469 18.523438 24.066406 Z M 18.523438 24.066406 "/>
</g>
</svg>
